X:286
T: BRINGT MIR BLUT DER EDLEN REBEN
N: B0338
O: Europa, Mitteleuropa, Deutschland
R: Trink - Lied, patriotisch, national
M: 4/4
L: 1/4
K: D
 | AAdA | FFAF | D2E2 | F2z2
dcBA | BAGF | EFGE | AGFE
d2e2 | fd2z | A2c2 | d2z2
dcBA | BAGF | EFGE | AGFE
d2e2 | fd2z | A2c2 | d2z2

